public/images/rss.svg

<svg width="34" height="35" viewBox="0 0 34 35" fill="none" xmlns="http://www.w3.org/2000/svg">
<circle cx="17" cy="17.5" r="17" fill="white"/>
<path d="M12.3252 20.135C11.7302 20.135 11.2202 20.305 10.8802 20.73C10.4552 21.155 10.2852 21.665 10.2852 22.175C10.2852 22.77 10.4552 23.28 10.8802 23.62C11.3052 24.045 11.8152 24.215 12.3252 24.215C12.9202 24.215 13.4302 24.045 13.7702 23.62C14.1952 23.195 14.3652 22.685 14.3652 22.175C14.3652 21.58 14.1952 21.07 13.7702 20.73C13.4302 20.305 12.9202 20.135 12.3252 20.135Z" fill="black"/>
<path d="M17.1702 17.415C16.3202 16.565 15.3852 15.97 14.3652 15.46C13.3452 14.95 12.2402 14.695 11.0502 14.61H10.9652C10.7952 14.61 10.6252 14.695 10.4552 14.78C10.2852 14.95 10.2002 15.12 10.2002 15.29V16.735C10.2002 16.905 10.2852 17.075 10.3702 17.16C10.4552 17.33 10.6252 17.33 10.7952 17.415C12.4952 17.585 13.8552 18.265 15.0452 19.455C16.2352 20.645 16.9152 22.09 17.0852 23.705C17.0852 23.875 17.1702 24.045 17.3402 24.13C17.5102 24.215 17.5952 24.3 17.8502 24.3H19.2952C19.4652 24.3 19.6352 24.215 19.8052 24.045C19.9752 23.875 19.9752 23.705 19.9752 23.535C19.8902 22.345 19.5502 21.24 19.1252 20.22C18.6152 19.115 17.9352 18.18 17.1702 17.415Z" fill="black"/>
<path d="M24.2252 18.095C23.4602 16.395 22.3552 14.78 20.9952 13.505C19.6352 12.145 18.1052 11.125 16.4052 10.275C14.7052 9.51 12.8352 9.085 10.9652 9C10.7952 9 10.6252 9.085 10.4552 9.17C10.2852 9.34 10.2002 9.51 10.2002 9.68V11.21C10.2002 11.38 10.2852 11.55 10.3702 11.72C10.4552 11.89 10.6252 11.89 10.7952 11.89C12.3252 11.975 13.8552 12.315 15.2152 12.995C16.5752 13.675 17.8502 14.44 18.8702 15.545C19.8902 16.565 20.7402 17.755 21.4202 19.2C22.1002 20.56 22.4402 22.09 22.5252 23.62C22.5252 23.79 22.6102 23.96 22.6952 24.045C22.8652 24.13 22.9502 24.215 23.2052 24.215H24.7352C24.9052 24.215 25.0752 24.13 25.2452 23.96C25.4152 23.79 25.4152 23.62 25.4152 23.45C25.4152 21.665 24.9902 19.88 24.2252 18.095Z" fill="black"/>
</svg>

<svg width="34" height="35" fill="none" xmlns="http://www.w3.org/2000/svg"><circle cx="17" cy="17.5" r="17" fill="#fff"/><path d="M12.325 20.135c-.595 0-1.105.17-1.445.595a1.99 1.99 0 00-.595 1.445c0 .595.17 1.105.595 1.445a1.99 1.99 0 001.445.595c.595 0 1.105-.17 1.445-.595a1.99 1.99 0 00.595-1.445c0-.595-.17-1.105-.595-1.445-.34-.425-.85-.595-1.445-.595zm4.845-2.72c-.85-.85-1.785-1.445-2.805-1.955-1.02-.51-2.125-.765-3.315-.85h-.085c-.17 0-.34.085-.51.17-.17.17-.255.34-.255.51v1.445c0 .17.085.34.17.425.085.17.255.17.425.255 1.7.17 3.06.85 4.25 2.04s1.87 2.635 2.04 4.25c0 .17.085.34.255.425.17.085.255.17.51.17h1.445c.17 0 .34-.085.51-.255.17-.17.17-.34.17-.51-.085-1.19-.425-2.295-.85-3.315a9.722 9.722 0 00-1.955-2.805z" fill="#000"/><path d="M24.225 18.095c-.765-1.7-1.87-3.315-3.23-4.59-1.36-1.36-2.89-2.38-4.59-3.23A14.98 14.98 0 0010.965 9c-.17 0-.34.085-.51.17-.17.17-.255.34-.255.51v1.53c0 .17.085.34.17.51.085.17.255.17.425.17 1.53.085 3.06.425 4.42 1.105 1.36.68 2.635 1.445 3.655 2.55 1.02 1.02 1.87 2.21 2.55 3.655.68 1.36 1.02 2.89 1.105 4.42 0 .17.085.34.17.425.17.085.255.17.51.17h1.53c.17 0 .34-.085.51-.255.17-.17.17-.34.17-.51 0-1.785-.425-3.57-1.19-5.355z" fill="#000"/></svg>
